src/assets/footer/separator.svg

<svg fill="none" height="6" viewBox="0 0 44 6" width="44" xmlns="http://www.w3.org/2000/svg"><path clip-rule="evenodd" d="m11.7275 3.53338c-1.89035.54221-4.07286 1.08181-6.17244 1.21655-1.79455.115-3.52792-.06362-4.94671-.82359-.199999-.10701-.450451-.03345-.5586125.16458-.1083259.19786-.033801.44565.1661975.55282 1.547725.82881 3.434925 1.0456 5.392385.92 2.13733-.13702 4.35925-.68022 6.28748-1.23026.2238.44842.6871.86649 1.5032 1.17495 1.2536.47387 2.9652.46799 4.7684.20097 2.6151-.38709 5.4283-1.31018 7.237-1.96609.0742-.02675.1847-.06932.3199-.12543.0412.09004.0874.17878.1385.26588.4435.75916 1.2283 1.37298 2.028 1.59222 5.0717 1.39011 10.9909-.27552 15.8103-1.63104.2177-.0615.3446-.28725.2836-.50371-.0626-.21646-.2902-.34223-.5095-.28073-4.6842 1.31768-10.4352 2.98019-15.3651 1.6294-.6068-.16639-1.197-.63812-1.5334-1.21426-.0379-.06427-.0709-.13001-.1022-.19673.6645-.32575 1.446-.77987 1.8664-1.26597.432-.49833.5392-1.030264.1633-1.532674-.3232-.4294952-.8129-.4660348-1.3224-.243376-.549.238482-1.1146.79602-1.2976 1.05766-.3429.48871-.4517 1.01886-.3891 1.53578-.1616.06753-.2928.11777-.3738.14713-1.7691.64139-4.5188 1.54671-7.0759 1.92532-1.6454.2437-3.2083.27615-4.3522-.15611-.4879-.18449-.8102-.39981-.9852-.64971.3453-.10211.6782-.2026.9962-.29851.6291-.18971 1.9387-.50371 2.8744-1.06338.7441-.44499 1.2486-1.05033 1.2193-1.809161-.015-.389857-.2431-.650038-.606-.795867-.5423-.2177656-1.4801-.1123923-1.8293-.0389883-1.0592.2221693-2.4729 1.1418463-3.1723 2.1781463-.2791.41351-.4452.8461-.4628 1.26418zm.8701-.2548c.2992-.08906.5884-.17649.8662-.26034.5872-.17714 1.8145-.45853 2.6882-.98117.4627-.27665.8404-.6081.8221-1.080009-.0015-.036702-.0382-.047138-.0707-.062145-.0503-.023-.1078-.038827-.1692-.051224-.415-.083844-.9724-.002777-1.2006.04518-.8887.186448-2.0709.963718-2.6577 1.833308-.124.18367-.2228.37077-.2783.5564zm13.712-.82375c.3875-.19721.7931-.4357 1.113-.69522.1698-.13784.3132-.27958.4039-.42672.0759-.12168.1055-.24632.0148-.366699-.0362-.048773-.0906-.049745-.1467-.040611-.0594.009788-.1204.030661-.1814.057576-.4023.175194-.8178.584464-.9513.776454-.1567.22266-.2341.45821-.2523.69522z" fill="#444" fill-rule="evenodd"/></svg>

<svg width="44" height="6" viewBox="0 0 44 6" fill="none" xmlns="http://www.w3.org/2000/svg">
<path fill-rule="evenodd" clip-rule="evenodd" d="M11.7275 3.53338C9.83715 4.07559 7.65464 4.61519 5.55506 4.74993C3.76051 4.86493 2.02714 4.68631 0.60835 3.92634C0.408351 3.81933 0.157899 3.89289 0.0497375 4.09092C-0.0585884 4.28878 0.0159365 4.53657 0.215935 4.64374C1.76366 5.47255 3.65086 5.68934 5.60832 5.56374C7.74565 5.42672 9.96757 4.88352 11.8958 4.33348C12.1196 4.7819 12.5829 5.19997 13.399 5.50843C14.6526 5.9823 16.3642 5.97642 18.1674 5.7094C20.7825 5.32231 23.5957 4.39922 25.4044 3.74331C25.4786 3.71656 25.5891 3.67399 25.7243 3.61788C25.7655 3.70792 25.8117 3.79666 25.8628 3.88376C26.3063 4.64292 27.0911 5.25674 27.8908 5.47598C32.9625 6.86609 38.8817 5.20046 43.7011 3.84494C43.9188 3.78344 44.0457 3.55769 43.9847 3.34123C43.9221 3.12477 43.6945 2.999 43.4752 3.0605C38.791 4.37818 33.04 6.04069 28.1101 4.6899C27.5033 4.52351 26.9131 4.05178 26.5767 3.47564C26.5388 3.41137 26.5058 3.34563 26.4745 3.27891C27.139 2.95316 27.9205 2.49904 28.3409 2.01294C28.7729 1.51461 28.8801 0.982676 28.5042 0.480266C28.181 0.0507708 27.6913 0.0142312 27.1818 0.23689C26.6328 0.475372 26.0672 1.03291 25.8842 1.29455C25.5413 1.78326 25.4325 2.31341 25.4951 2.83033C25.3335 2.89786 25.2023 2.9481 25.1213 2.97746C23.3522 3.61885 20.6025 4.52417 18.0454 4.90278C16.4 5.14648 14.8371 5.17893 13.6932 4.74667C13.2053 4.56218 12.883 4.34686 12.708 4.09696C13.0533 3.99485 13.3862 3.89436 13.7042 3.79845C14.3333 3.60874 15.6429 3.29474 16.5786 2.73507C17.3227 2.29008 17.8272 1.68474 17.7979 0.925909C17.7829 0.536052 17.5548 0.275871 17.1919 0.130042C16.6496 -0.0877236 15.7118 0.0176497 15.3626 0.0910537C14.3034 0.313223 12.8897 1.2329 12.1903 2.2692C11.9112 2.68271 11.7451 3.1153 11.7275 3.53338ZM12.5976 3.27858C12.8968 3.18952 13.186 3.10209 13.4638 3.01824C14.051 2.8411 15.2783 2.55971 16.152 2.03707C16.6147 1.76042 16.9924 1.42897 16.9741 0.957061C16.9726 0.920359 16.9359 0.909923 16.9034 0.894916C16.8531 0.871916 16.7956 0.856089 16.7342 0.843692C16.3192 0.759848 15.7618 0.840915 15.5336 0.888872C14.6449 1.07532 13.4627 1.85259 12.8759 2.72218C12.7519 2.90585 12.6531 3.09295 12.5976 3.27858ZM26.3096 2.45483C26.6971 2.25762 27.1027 2.01913 27.4226 1.75961C27.5924 1.62177 27.7358 1.48003 27.8265 1.33289C27.9024 1.21121 27.932 1.08657 27.8413 0.966191C27.8051 0.917418 27.7507 0.916446 27.6946 0.92558C27.6352 0.935368 27.5742 0.956241 27.5132 0.983156C27.1109 1.15835 26.6954 1.56762 26.5619 1.75961C26.4052 1.98227 26.3278 2.21782 26.3096 2.45483Z" fill="#444444"/>
</svg>
